X: 95
T: Ships are Sailing
R: reel
Z: 2012 John Chambers <jc@trillian.mit.edu>
B: "100 Essential Irish Session Tunes" 1995 Dave Mallinson, ed.
M: 4/4
L: 1/8
K: Edor
ed !segno!|\
"Em"Beed BcdB | "D"ADFD ADFD |\
[1,3"C"EDEF GFGA | "Bm"Beef gf :|\
[2,4 "C"E2EF GFGA | "Bm"Beed "Em"e2 :|
ef |:\
"Em"gfga bgeg | "D"fefg afdf |\
[1,3 "Em"gfga bgeg | "Bm"fedf "Em"e3f :|\
[2,4 "C"g2bg "Bm"f2af | "C"edef "Bm"gfed "D.S.":|

%%sep 2 1 500
%%sep 1 1 500

